X:4203
T:Miller Of Drone. JMT099
O:england
M:4/4
L:1/8
Q:200
S:J.Moore,Tyneside,1842.(69b)
R:Reel
A:Northumbria
K:G
BA|G<EEG DEDB,|D<DGA BABd|GEEG DEDB,|D<DEFG2:|
|:Bc|dBBg dBee|dBBde2eg|dBBg dBAG|BABGE2cd|
dBBg dBee|dBBde2ea|gfed edBG|BABGE2:|]
